X:111
U: ~ = !turn!
%%topmargin 3cm
T:Lady on the Island
B:Traditional Irish Fiddle Tunes. Randy Miller and Jack Perron.
S:Denis Murphy
Z:Transcribed by Ralph Palmer
R:Reel
M:C|
L:1/8
K:D
dB | {/c}BAFB AFEF | (3.D.D.D ED ((3BAF) dA | {Bc}BAFB AFAB | defd efdB |
{/c}BAFB AFEF | (3.D.D.D ED ((3BAF) dA | {Bc}BAFB AFAB | defd e2 ((3ABc) ||
d2 fd efge | afdf eB (3{/c}(BAB) | defd efge | afdf e2 ((3ABc) |
d2 fd efge | afdf eB (3{/c}(BAB) | defg afbf | afdf e2 dB |]
